X:1
T:Mrs. Chisholm
T:Mrs. Chisholm
T:Niel Gow
C:Niel Gow
L:1/8
Q:1/8=128
M:4/4
K:A
V:1 treble 
V:1
|: c | A<A c>A B>F F<B | A<A c>A e>A c>A | d>B c>A B>A F<B | A>F E<C A,2 A,c | A<A c>A B>F F<B | %6
 A<A c>A e>A c>A | d>B c>A B>A F<B | A>F E<C A,2 A,f/g/ | a>e f>c B>A Ff/g/ | a>e f>c e<a ed/c/ | %11
 d>B c>A B>A F<B | A>F E<C A,2 A,f/g/ | a>e f>c B>A Ff/g/ | a>e f>c A<a ed/c/ | d<f c<a B>A F>B | %16
 A>F E<C A,2 A, :| %17

